images/guitar.svg

<svg width="9" height="9" viewBox="0 0 9 9" fill="none" xmlns="http://www.w3.org/2000/svg">
<path d="M1.79998 6.8001C1.69998 6.7001 1.59996 6.7001 1.59996 6.8001L1.2 7.20012C1.1 7.30012 1.1 7.40013 1.2 7.40013L1.7 7.90013C1.8 8.00013 1.90001 8.00013 1.90001 7.90013L2.29998 7.50011C2.39998 7.40011 2.39998 7.3001 2.29998 7.3001L1.79998 6.8001ZM1.7 7.50011L1.49999 7.3001L1.59996 7.20012L1.79998 7.40013L1.7 7.50011Z" fill="white"/>
<path d="M2.09994 6.40005C1.89994 6.20005 1.69999 6.5 1.89999 6.6L2.39999 7.1C2.59999 7.3 2.79994 7.00005 2.59994 6.90005L2.09994 6.40005Z" fill="white"/>
<path d="M8.59984 1.60005L8.39989 1.4001C8.59988 1.3001 8.59984 1.20005 8.59984 1.10005C8.59984 0.900051 8.39985 0.9001 8.29985 0.9001C8.19985 0.9001 8.09988 0.9001 7.89989 0.9001L7.69987 0.700088C7.49987 0.500088 7.29986 0.8001 7.49986 0.9001H7.39989L7.19987 0.700088C6.99987 0.500088 6.79986 0.8001 6.99986 0.9001H6.89989L6.79985 0.800063C6.59985 0.600063 6.39984 0.900076 6.59984 1.00008C6.69984 1.10008 6.59984 1.10009 6.59984 1.20009L6.49986 1.60005L4.39989 3.70009C4.39989 3.50009 4.39989 3.30005 4.39989 3.10005C4.39989 2.70005 4.59985 2.40005 4.79985 2.10005C4.89985 2.00005 4.79987 1.90006 4.69987 1.80006C3.89987 1.70006 2.99989 3.00008 2.89989 3.50008C2.89989 3.70008 2.89985 3.80008 2.79985 4.00008C2.69985 4.20008 2.39987 4.30006 2.19987 4.30006C2.09987 4.30006 1.99989 4.30006 1.89989 4.30006C1.69989 4.30006 1.49985 4.3001 1.29985 4.4001C0.899848 4.5001 0.599885 4.70005 0.399885 5.10005C0.199885 5.50005 0.0998729 6.0001 0.199873 6.4001C0.299873 6.8001 0.499885 7.20005 0.899885 7.60005C1.19989 7.90005 1.49989 8.2001 1.89989 8.4001C2.29989 8.6001 2.59989 8.70009 2.89989 8.70009C3.19989 8.70009 3.39986 8.60005 3.49986 8.60005C3.99986 8.40005 4.09987 7.90008 4.19987 7.50008C4.19987 7.40008 4.29985 7.30009 4.29985 7.20009C4.39985 6.80009 4.69984 6.50006 5.09984 6.30006C5.19984 6.30006 5.29989 6.20009 5.39989 6.20009C5.69989 6.10009 6.09987 6.00005 6.19987 5.60005C6.29987 5.30005 6.09985 5.10005 5.79985 5.10005L4.99986 5.20009H4.89989C4.89989 5.20009 4.89985 5.20005 4.79985 5.10005C4.79985 5.00005 4.69987 4.90006 4.69987 4.80006L7.19987 2.30006H7.49986C7.59986 2.30006 7.69987 2.30009 7.69987 2.20009L7.79985 2.30006C7.99985 2.50006 8.19986 2.20005 7.99986 2.10005L7.89989 2.00008C7.89989 2.00008 7.89986 1.9001 7.99986 1.9001L8.09984 2.00008C8.29984 2.20008 8.49985 1.90006 8.29985 1.80006L8.09984 1.60005C8.09984 1.60005 8.09987 1.60008 8.19987 1.50008L8.39989 1.70009C8.59988 2.00009 8.79984 1.80005 8.59984 1.60005ZM2.89989 6.4001L2.69987 6.20009L6.69987 2.20009L6.89989 2.4001L2.89989 6.4001ZM4.39989 5.50008C4.39989 5.60008 4.49984 5.70006 4.59984 5.80006C4.69984 5.80006 4.79989 5.80006 4.89989 5.80006L5.69987 5.70009C5.59987 5.90009 5.29984 6.00005 5.09984 6.10005C4.99984 6.10005 4.89985 6.20009 4.79985 6.20009C4.39985 6.40009 3.99985 6.80006 3.79985 7.30006C3.79985 7.40006 3.69987 7.50005 3.69987 7.60005C3.59987 8.00005 3.49987 8.30008 3.19987 8.50008C2.79987 8.70008 2.19986 8.50006 1.99986 8.30006C1.39986 8.00006 0.699861 7.30008 0.499861 6.50008C0.399861 6.20008 0.499873 5.80008 0.699873 5.50008C0.799873 5.30008 0.999885 5.10008 1.39989 5.00008C1.59989 5.00008 1.69989 5.00008 1.89989 5.00008C1.99989 5.00008 2.09987 5.00008 2.19987 5.00008C2.59987 5.00008 2.89984 4.80008 3.09984 4.50008C3.19984 4.40008 3.19987 4.20008 3.19987 4.00008C3.29987 3.60008 3.49985 3.2001 3.79985 2.9001C3.99985 2.7001 4.19985 2.50008 4.29985 2.50008C4.19985 2.70008 4.09986 3.00006 3.99986 3.30006C3.99986 3.50006 3.99986 3.70008 3.99986 4.00008C3.99986 4.10008 3.99986 4.10009 3.99986 4.20009L2.19987 6.00008C2.09987 6.10008 2.09987 6.20009 2.19987 6.20009L2.69987 6.70009C2.79987 6.80009 2.89989 6.80009 2.89989 6.70009L4.29985 5.30006C4.39985 5.40006 4.39989 5.40008 4.39989 5.50008C4.49989 5.60008 4.39989 5.40008 4.39989 5.50008ZM7.39989 2.10005H7.09984C6.99984 2.00005 6.89985 1.90006 6.79985 1.80006L6.89989 1.50008C6.99989 1.40008 7.19984 1.30006 7.59984 1.30006C7.79984 1.30006 7.99984 1.30006 8.09984 1.30006C7.79984 1.50006 7.59986 1.90005 7.49986 2.10005C7.49986 2.10005 7.49989 2.10005 7.39989 2.10005Z" fill="white"/>
<path d="M1.39996 5.70013C1.49996 5.70013 1.49994 5.60012 1.49994 5.50012C1.49994 5.40012 1.39993 5.40015 1.29993 5.40015C1.09993 5.50015 0.699951 5.6001 0.699951 6.1001C0.699951 6.3001 0.999939 6.3001 0.999939 6.1001C1.09994 5.8001 1.19996 5.80013 1.39996 5.70013C1.49996 5.70013 1.19996 5.80013 1.39996 5.70013Z" fill="white"/>
<path d="M1.99982 5.60004C2.09982 5.60004 2.19983 5.50009 2.19983 5.40009C2.19983 5.30009 2.09982 5.20007 1.99982 5.20007C1.89982 5.20007 1.7998 5.30009 1.7998 5.40009C1.8998 5.50009 1.89982 5.60004 1.99982 5.60004Z" fill="white"/>
</svg>

<svg width="9" height="9" fill="none" xmlns="http://www.w3.org/2000/svg"><path d="M1.8 6.8c-.1-.1-.2-.1-.2 0l-.4.4c-.1.1-.1.2 0 .2l.5.5c.1.1.2.1.2 0l.4-.4c.1-.1.1-.2 0-.2l-.5-.5Zm-.1.7-.2-.2.1-.1.2.2-.1.1ZM2.1 6.4c-.2-.2-.4.1-.2.2l.5.5c.2.2.4-.1.2-.2l-.5-.5Z" fill="#fff"/><path d="m8.6 1.6-.2-.2c.2-.1.2-.2.2-.3 0-.2-.2-.2-.3-.2h-.4L7.7.7c-.2-.2-.4.1-.2.2h-.1L7.2.7C7 .5 6.8.8 7 .9h-.1L6.8.8c-.2-.2-.4.1-.2.2.1.1 0 .1 0 .2l-.1.4-2.1 2.1v-.6c0-.4.2-.7.4-1 .1-.1 0-.2-.1-.3C3.9 1.7 3 3 2.9 3.5c0 .2 0 .3-.1.5s-.4.3-.6.3h-.3c-.2 0-.4 0-.6.1-.4.1-.7.3-.9.7-.2.4-.3.9-.2 1.3.1.4.3.8.7 1.2.3.3.6.6 1 .8.4.2.7.3 1 .3.3 0 .5-.1.6-.1.5-.2.6-.7.7-1.1 0-.1.1-.2.1-.3.1-.4.4-.7.8-.9.1 0 .2-.1.3-.1.3-.1.7-.2.8-.6.1-.3-.1-.5-.4-.5l-.8.1h-.1l-.1-.1c0-.1-.1-.2-.1-.3l2.5-2.5h.3c.1 0 .2 0 .2-.1l.1.1c.2.2.4-.1.2-.2L7.9 2s0-.1.1-.1l.1.1c.2.2.4-.1.2-.2l-.2-.2.1-.1.2.2c.2.3.4.1.2-.1ZM2.9 6.4l-.2-.2 4-4 .2.2-4 4Zm1.5-.9c0 .1.1.2.2.3h.3l.8-.1c-.1.2-.4.3-.6.4-.1 0-.2.1-.3.1-.4.2-.8.6-1 1.1 0 .1-.1.2-.1.3-.1.4-.2.7-.5.9-.4.2-1 0-1.2-.2C1.4 8 .7 7.3.5 6.5c-.1-.3 0-.7.2-1 .1-.2.3-.4.7-.5h.8c.4 0 .7-.2.9-.5.1-.1.1-.3.1-.5.1-.4.3-.8.6-1.1.2-.2.4-.4.5-.4-.1.2-.2.5-.3.8V4.2L2.2 6c-.1.1-.1.2 0 .2l.5.5c.1.1.2.1.2 0l1.4-1.4c.1.1.1.1.1.2.1.1 0-.1 0 0Zm3-3.4h-.3l-.3-.3.1-.3c.1-.1.3-.2.7-.2h.5c-.3.2-.5.6-.6.8h-.1Z" fill="#fff"/><path d="M1.4 5.7c.1 0 .1-.1.1-.2s-.1-.1-.2-.1c-.2.1-.6.2-.6.7 0 .2.3.2.3 0 .1-.3.2-.3.4-.4.1 0-.2.1 0 0ZM2 5.6c.1 0 .2-.1.2-.2s-.1-.2-.2-.2-.2.1-.2.2c.1.1.1.2.2.2Z" fill="#fff"/></svg>
